!!!COM: Gaspar van Weerbeke
!!!CDT: ~1450-~1517
!!!OPR: Missa Princesse d'amourettes
!!!OTL: Sanctus
!!!ONM: 4
!!!AGN: Mass
!!!SCT: Gas0103d
!!!SCA: Gas0103d
!!!voices: 4
**kern	**text	**kern	**text	**kern	**text	**kern	**text
*part4	*part4	*part3	*part3	*part2	*part2	*part1	*part1
*staff4	*staff4	*staff3	*staff3	*staff2	*staff2	*staff1	*staff1
*I"Bassus	*	*I"Tenor	*	*I"Altus	*	*I"Superius	*
*I'B	*	*I'T	*	*I'A	*	*I'S	*
*clefF4	*	*clefGv2	*	*clefGv2	*	*clefG2	*
*k[]	*	*k[]	*	*k[]	*	*k[]	*
*M3/2	*	*M3/2	*	*M3/2	*	*M3/2	*
*met(O)	*	*met(O)	*	*met(O)	*	*met(O)	*
=1	=1	=1	=1	=1	=1	=1	=1
*lig	*	*	*	*	*	*	*
2GG	San-	1.r	.	1G	San-	1.r	.
2C	.	.	.	.	.	.	.
*Xlig	*	*	*	*	*	*	*
2BB	.	.	.	2G	.	.	.
=2	=2	=2	=2	=2	=2	=2	=2
*	*	*	*	*lig	*	*	*
2AA	.	1.r	.	2c	.	1.r	.
4BB	.	.	.	2B	.	.	.
*	*	*	*	*Xlig	*	*	*
2D	.	.	.	.	.	.	.
.	.	.	.	2A	.	.	.
4C	.	.	.	.	.	.	.
=3	=3	=3	=3	=3	=3	=3	=3
*lig	*	*	*	*	*	*	*
2D	.	1.r	.	4B	.	1.r	.
.	.	.	.	2d	.	.	.
2E	.	.	.	.	.	.	.
.	.	.	.	4c	.	.	.
*Xlig	*	*	*	*lig	*	*	*
4D	.	.	.	2d	.	.	.
[4G	.	.	.	.	.	.	.
=4	=4	=4	=4	=4	=4	=4	=4
4G]	.	1.r	.	2e	.	1.r	.
*	*	*	*	*Xlig	*	*	*
4C	.	.	.	.	.	.	.
4BB	.	.	.	4d	.	.	.
4GG	.	.	.	2g	.	.	.
*col	*	*	*	*	*	*	*
4.C	.	.	.	.	.	.	.
.	.	.	.	4c	.	.	.
8D	.	.	.	.	.	.	.
*Xcol	*	*	*	*	*	*	*
=5	=5	=5	=5	=5	=5	=5	=5
2.E	.	1.r	.	4B	.	1.r	.
.	.	.	.	4G	.	.	.
.	.	.	.	4.c	.	.	.
4F	.	.	.	.	.	.	.
.	.	.	.	8d	.	.	.
4E	.	.	.	4.e	.	.	.
[4A	.	.	.	.	.	.	.
.	.	.	.	8d	.	.	.
!!LO:LB:g=original
=6	=6	=6	=6	=6	=6	=6	=6
4A]	.	1.r	.	4c	.	1.r	.
2G	.	.	.	4B	.	.	.
.	.	.	.	2A	-ctus,	.	.
4F	.	.	.	.	.	.	.
4.G	.	.	.	4r	.	.	.
.	.	.	.	4G	san-	.	.
8E	.	.	.	.	.	.	.
=7	=7	=7	=7	=7	=7	=7	=7
4F	.	1.r	.	4A	.	2r	.
4E	.	.	.	4G	.	.	.
2C	-ctus,	.	.	2.c	.	2g	San-
4r	.	.	.	.	.	4a	.
*	*edit	*	*	*	*	*	*
4E	san-	.	.	4B	.	4g	.
=8	=8	=8	=8	=8	=8	=8	=8
4.F	.	1.r	.	4.A	.	2.cc	.
8E	.	.	.	8G	.	.	.
4C	.	.	.	8EL	.	.	.
.	.	.	.	8DJ	.	.	.
4GG	.	.	.	2G	.	4b	.
2D	-ctus,	.	.	.	.	4.a	.
.	.	.	.	4F	.	.	.
.	.	.	.	.	.	16gLL	.
.	.	.	.	.	.	16fJJ	.
=9	=9	=9	=9	=9	=9	=9	=9
*	*	*	*	*lig	*	*	*
1.r	.	1.r	.	2G	.	8eL	.
.	.	.	.	.	.	8dJ	.
.	.	.	.	.	.	2g	.
.	.	.	.	2A	.	.	.
*	*	*	*	*Xlig	*	*	*
.	.	.	.	.	.	4f	.
*	*	*	*	*	*	*lig	*
.	.	.	.	4G	.	2g	.
.	.	.	.	[4c	.	.	.
=10	=10	=10	=10	=10	=10	=10	=10
1.r	.	1.r	.	4c]	.	2a	.
*	*	*	*	*	*	*Xlig	*
.	.	.	.	4d	.	.	.
.	.	.	.	2.e	.	4g	.
.	.	.	.	.	.	2c	.
.	.	.	.	4f	.	4d	.
!!LO:LB:g=original
=11	=11	=11	=11	=11	=11	=11	=11
1.r	.	1.r	.	4e	.	2.e	.
.	.	.	.	4.g	.	.	.
.	.	.	.	8f	.	.	.
.	.	.	.	4d	.	4f	.
.	.	.	.	2c	.	4e	.
.	.	.	.	.	.	[4g	.
=12	=12	=12	=12	=12	=12	=12	=12
1.r	.	1.r	.	2B	-ctus,	8g]L	.
.	.	.	.	.	.	8fJ	.
.	.	.	.	.	.	4d	.
.	.	.	.	4r	.	2c	.
*	*	*	*	*	*edit	*	*
.	.	.	.	4c	san-	.	.
.	.	.	.	4.d	.	2B	-ctus,
.	.	.	.	16cLL	.	.	.
.	.	.	.	16dJJ	.	.	.
=13	=13	=13	=13	=13	=13	=13	=13
1.r	.	1.r	.	4e	.	4r	.
.	.	.	.	8dL	.	4c	san-
.	.	.	.	8cJ	.	.	.
.	.	.	.	2B	-ctus,	4.d	.
.	.	.	.	.	.	16cLL	.
.	.	.	.	.	.	16dJJ	.
.	.	.	.	4r	.	4.e	.
.	.	.	.	[4E	san-	.	.
.	.	.	.	.	.	16dLL	.
.	.	.	.	.	.	16cJJ	.
=14	=14	=14	=14	=14	=14	=14	=14
1.r	.	1.r	.	8E]L	.	2B	-ctus,
.	.	.	.	8FJ	.	.	.
.	.	.	.	4G	.	.	.
.	.	.	.	2C	-ctus,	4r	.
*	*	*	*	*	*	*	*edit
.	.	.	.	.	.	4.e	san-
.	.	.	.	4.c	san-	.	.
.	.	.	.	.	.	8f	.
.	.	.	.	.	.	4g	.
.	.	.	.	8d	.	.	.
!!LO:LB:g=original
=15	=15	=15	=15	=15	=15	=15	=15
1.r	.	1.r	.	8eL	.	4.c	.
.	.	.	.	8fJ	.	.	.
.	.	.	.	4.g	.	.	.
.	.	.	.	.	.	8d	.
.	.	.	.	.	.	8eL	.
.	.	.	.	8fL	.	8f	.
.	.	.	.	8e	.	8g	.
.	.	.	.	8dJ	.	8aJ	.
.	.	.	.	4e	.	4g	.
.	.	.	.	8dL	.	8fL	.
.	.	.	.	8cJ	.	8eJ	.
=16	=16	=16	=16	=16	=16	=16	=16
*	*	*lig	*	*	*	*	*
1.r	.	[1.G	San-	4B	.	4d	.
.	.	.	.	4e	.	4c	.
.	.	.	.	4d	.	4B	.
.	.	.	.	2c	.	4c	.
.	.	.	.	.	.	2d	-ctus,
.	.	.	.	4B	.	.	.
=17	=17	=17	=17	=17	=17	=17	=17
2.C	san-	1.G]	.	4.c	-ctus,	4.e	san-
.	.	.	.	8d	.	8f	.
.	.	.	.	4e	.	8gL	.
.	.	.	.	.	.	8aJ	.
4BB	.	.	.	2d	san-	2b	.
2GG	-ctus,	.	.	.	.	.	.
.	.	.	.	4B	.	8aL	.
.	.	.	.	.	.	8gJ	.
=18	=18	=18	=18	=18	=18	=18	=18
4r	.	1.c	.	4.A	.	2.a	.
*	*	*Xlig	*	*	*	*	*
2F	san-	.	.	.	.	.	.
.	.	.	.	8B	.	.	.
.	.	.	.	8cL	.	.	.
.	.	.	.	8dJ	.	.	.
4E	.	.	.	4e	.	4g	.
4F	.	.	.	4c	.	4a	.
4C	.	.	.	4g	-ctus,	[4cc	.
!!LO:PB:g=original
=19	=19	=19	=19	=19	=19	=19	=19
2.G	.	2.d	.	4r	.	4cc]	.
.	.	.	.	2g	san-	2b	.
4A	.	4c	.	4.e	.	2a	.
2E	.	2B	.	.	.	.	.
.	.	.	.	8dL	.	.	.
.	.	.	.	8c	.	4g#i	.
.	.	.	.	8BJ	.	.	.
=20	=20	=20	=20	=20	=20	=20	=20
*	*	*lig	*	*	*	*	*
4AA	.	[1.A	-ctus,	4c	.	2.a	-ctus,
4D	.	.	.	4f	.	.	.
4C	.	.	.	4e	.	.	.
4D	-ctus,	.	.	4d	.	8gL	.
.	.	.	.	.	.	8fJ	.
2r	.	.	.	4c	.	4e	.
.	.	.	.	4d	.	4f	.
=21	=21	=21	=21	=21	=21	=21	=21
4AA	san-	1.A_	.	4c	.	4e	.
4D	.	.	.	4d	.	2d	san-
2AA	-ctus,	.	.	2e	-ctus,	.	.
.	.	.	.	.	.	4c#j	.
2r	.	.	.	4r	.	4d	.
.	.	.	.	[4d	san-	[4f	.
=22	=22	=22	=22	=22	=22	=22	=22
2r	.	1.A]	.	4d]	.	8f]L	.
.	.	.	.	.	.	8gJ	.
.	.	.	.	4c	.	2a	.
*col	*Xedit	*	*	*	*	*	*
1D	san-	.	.	4d	.	.	.
*Xcol	*	*	*	*	*	*	*
.	.	.	.	4B	.	2g	.
.	.	.	.	2A	.	.	.
.	.	.	.	.	.	4f#i	.
=23	=23	=23	=23	=23	=23	=23	=23
*lig	*	*	*	*	*	*	*
1.GG	-ctus	1.B	.	2.G	-ctus	1g	-ctus
*	*	*Xlig	*	*	*	*	*
.	.	.	.	8FL	.	.	.
.	.	.	.	8EJ	.	.	.
.	.	.	.	2D	.	2r	.
!!LO:LB:g=original
=24	=24	=24	=24	=24	=24	=24	=24
*	*	*lig	*edit	*	*	*	*
1.C	.	[1.G	Do-	4.c	Do-	2e	Do-
*Xlig	*	*	*	*	*	*	*
.	.	.	.	8d	.	.	.
.	.	.	.	8eL	.	4.e	.
.	.	.	.	8fJ	.	.	.
.	.	.	.	4g	.	.	.
.	.	.	.	.	.	8f	.
.	.	.	.	4c	.	4g	.
.	.	.	.	[4g	.	4c	.
=25	=25	=25	=25	=25	=25	=25	=25
2r	.	1.G]	.	8g]L	.	4.g	.
.	.	.	.	8fJ	.	.	.
.	.	.	.	4e	.	.	.
.	.	.	.	.	.	8a	.
*	*edit	*	*	*	*	*	*
4GG	Do-	.	.	4d	.	4b	.
4C	.	.	.	4c	.	4cc	.
2GG	-mi-	.	.	2d	-mi-	4b	.
.	.	.	.	.	.	8aL	.
.	.	.	.	.	.	8gJ	.
=26	=26	=26	=26	=26	=26	=26	=26
1D	-nus,	[1.A	.	4.d	-nus	2f	-mi-
.	.	.	.	8c	.	.	.
.	.	.	.	4A	.	2f	-nus
.	.	.	.	4.F	De-	.	.
4.D	De-	.	.	.	.	2r	.
.	.	.	.	8GL	.	.	.
.	.	.	.	8A	.	.	.
8C	.	.	.	8BJ	.	.	.
=27	=27	=27	=27	=27	=27	=27	=27
4.AA	.	1A]	.	4.c	.	1.r	.
*	*	*Xlig	*	*	*	*	*
8BB	.	.	.	8d	.	.	.
4C	.	.	.	4e	.	.	.
4D	.	.	.	4f	.	.	.
4E	.	2G	.	4g	.	.	.
4C	.	.	.	4e	.	.	.
!!LO:LB:g=original
=28	=28	=28	=28	=28	=28	=28	=28
2D	.	2F	.	4f	.	2r	.
.	.	.	.	4d	.	.	.
1AA	-us,	1E	-mi-	8eL	.	2r	.
.	.	.	.	8d	.	.	.
.	.	.	.	8c	.	.	.
.	.	.	.	8BJ	.	.	.
.	.	.	.	2c	-us,	2cc	De-
=29	=29	=29	=29	=29	=29	=29	=29
1.r	.	[1.D	-nus	2.d	De-	4b	.
.	.	.	.	.	.	2a	.
.	.	.	.	4B	.	2g	.
.	.	.	.	2A	.	.	.
.	.	.	.	.	.	4f#i	.
=30	=30	=30	=30	=30	=30	=30	=30
*	*Xedit	*	*	*	*	*	*
2GG	Do-	1.D]	.	2G	-us,	4g	-us,
*	*	*	*	*	*	*	*Xedit
.	.	.	.	.	.	4.b	Do-
4.GG	.	.	.	4r	.	.	.
.	.	.	.	.	.	8cc	.
.	.	.	.	4.D	Do-	4.dd	.
8AA	.	.	.	.	.	.	.
8BBL	.	.	.	.	.	.	.
8CJ	.	.	.	8E	.	8cc	.
4D	.	.	.	4F	.	4a	.
=31	=31	=31	=31	=31	=31	=31	=31
4E	.	1.r	.	4G	.	4g	.
4F	.	.	.	4A	.	4cc	.
4G	.	.	.	4B	.	4b	.
4D	.	.	.	2d	-mi-	4a	.
2E	-mi-	.	.	.	.	4.g	-mi-
.	.	.	.	4c#i	.	.	.
.	.	.	.	.	.	8e	.
!!LO:LB:g=original
=32	=32	=32	=32	=32	=32	=32	=32
2D	-nus	1A	De-	2d	-nus	2.f	-nus
4r	.	.	.	8cL	De-	.	.
.	.	.	.	8B	.	.	.
2F	De-	.	.	8A	.	4.a	De-
.	.	.	.	8GJ	.	.	.
.	.	4c	.	4F	.	.	.
.	.	.	.	.	.	8g	.
4D	.	[4d	.	4A	-us,	4f	.
=33	=33	=33	=33	=33	=33	=33	=33
2A	-us,	4d]	.	4r	.	2e	-us,
.	.	4c	.	4A	De-	.	.
*	*edit	*	*	*	*	*	*
4.D	De-	2d	-us	4.F	.	4r	.
*	*	*	*	*	*	*	*edit
.	.	.	.	.	.	4d	De-
8C	.	.	.	8G	.	.	.
4AA	.	4r	.	4A	.	4c	.
4GG	-us	4d	Sa-	4D	-us,	4B	.
=34	=34	=34	=34	=34	=34	=34	=34
4F	Sa-	4c	.	4r	.	4A	-us
8GL	.	4B	.	4d	Sa-	4r	.
8DJ	.	.	.	.	.	.	.
4F	.	4A	.	4c	.	2r	.
4G	.	4.d	-ba-	4B	.	.	.
*	*	*	*	*	*	*	*Xedit
4D	-ba-	.	.	4A	.	4.dd	Sa-
.	.	8cL	.	.	.	.	.
4GG	-oth,	8B	.	[4d	-ba-	.	.
.	.	8AJ	.	.	.	8cc	.
=35	=35	=35	=35	=35	=35	=35	=35
4r	.	4G	.	4d]	.	4b	.
*	*Xedit	*	*	*	*	*	*
4D	Sa-	4F	.	2d	.	2a	-ba-
*	*	*lig	*	*	*	*	*
2E	.	2G	.	.	.	.	.
.	.	.	.	4c	.	2g	.
2D	-ba-	2A	.	2d	.	.	.
*	*	*Xlig	*	*	*	*	*
.	.	.	.	.	.	4f#i	.
=36	=36	=36	=36	=36	=36	=36	=36
1.GGl	-oth.	1.Gl	-oth.	1.Bl 1.dl	-oth.	1.gl	-oth.
!!LO:PB:g=original
=37||	=37||	=37||	=37||	=37||	=37||	=37||	=37||
*M2/2	*	*M2/2	*	*M2/2	*	*M2/2	*
*met(C|)	*	*met(C|)	*	*met(C|)	*	*met(C|)	*
*	*	*	*	*	*Xedit	*	*
1r	.	1r	.	1D	Ple-	1r	.
=38	=38	=38	=38	=38	=38	=38	=38
1r	.	1r	.	2.F	-ni	1d	Ple-
.	.	.	.	4G	sunt	.	.
=39	=39	=39	=39	=39	=39	=39	=39
*	*	*	*	*	*edit	*	*
1r	.	1r	.	4A	ce-	2.f	-ni
.	.	.	.	4D	.	.	.
.	.	.	.	4A	.	.	.
.	.	.	.	4B	.	4g	sunt
=40	=40	=40	=40	=40	=40	=40	=40
1r	.	1r	.	2c	.	2.a	ce-
.	.	.	.	4d	.	.	.
.	.	.	.	4B	.	4d	.
=41	=41	=41	=41	=41	=41	=41	=41
1r	.	1r	.	4A	.	4a	.
.	.	.	.	2d	.	4f	.
.	.	.	.	.	.	2e	.
.	.	.	.	4c#i	.	.	.
=42	=42	=42	=42	=42	=42	=42	=42
1r	.	1r	.	4d	-li,	2.d	-li,
.	.	.	.	2G	ce-	.	.
*	*	*	*	*	*	*	*edit
.	.	.	.	4E	.	4G	ce-
=43	=43	=43	=43	=43	=43	=43	=43
4r	.	1r	.	4D	.	4d	.
4GG	Ple-	.	.	2G	.	4B	.
2D	.	.	.	.	.	2A	.
.	.	.	.	4F#i	.	.	.
!!LO:LB:g=original
=44	=44	=44	=44	=44	=44	=44	=44
2E	-ni	1r	.	2G	-li,	2G	-li
4D	sunt	.	.	[2B	ce-	2r	.
[4G	ce-	.	.	.	.	.	.
=45	=45	=45	=45	=45	=45	=45	=45
4G]	.	1r	.	4B]	.	1r	.
8FL	.	.	.	4c	.	.	.
8EJ	.	.	.	.	.	.	.
4D	.	.	.	[2d	.	.	.
[4G	.	.	.	.	.	.	.
=46	=46	=46	=46	=46	=46	=46	=46
8G]L	.	1r	.	4d]	.	1r	.
8AJ	.	.	.	.	.	.	.
4.B	.	.	.	4G	.	.	.
.	.	.	.	4d	.	.	.
8G	.	.	.	.	.	.	.
[4G	.	.	.	4B	.	.	.
=47	=47	=47	=47	=47	=47	=47	=47
4G]	.	1r	.	2A	-li,	1r	.
4F#j	.	.	.	.	.	.	.
4.G	-li,	.	.	2r	.	.	.
8Fny	.	.	.	.	.	.	.
=48	=48	=48	=48	=48	=48	=48	=48
4E	.	1r	.	2B	ple-	1r	.
4D	.	.	.	.	.	.	.
*	*edit	*	*	*	*	*	*
4C	ce-	.	.	2c	-ni	.	.
8BBL	.	.	.	.	.	.	.
8AAJ	.	.	.	.	.	.	.
=49	=49	=49	=49	=49	=49	=49	=49
2GG	-li,	1r	.	4B	sunt	1r	.
.	.	.	.	4.d	ce-	.	.
2BB	Ple-	.	.	.	.	.	.
.	.	.	.	8cL	.	.	.
.	.	.	.	8B	.	.	.
.	.	.	.	8AJ	.	.	.
=50	=50	=50	=50	=50	=50	=50	=50
2C	-ni	1r	.	2G	-li	1r	.
4BB	sunt	.	.	2r	.	.	.
[4D	ce-	.	.	.	.	.	.
!!LO:LB:g=original
=51	=51	=51	=51	=51	=51	=51	=51
*	*	*	*	*	*	*	*Xedit
8D]L	.	1r	.	2r	.	2f	et
8C	.	.	.	.	.	.	.
8BB	.	.	.	.	.	.	.
8AAJ	.	.	.	.	.	.	.
2GG	-li	.	.	2B	et	2g	ter-
=52	=52	=52	=52	=52	=52	=52	=52
4r	.	1r	.	2.A	ter-	4f	.
4D	et	.	.	.	.	4.a	.
2F	ter-	.	.	.	.	.	.
.	.	.	.	.	.	8gL	.
.	.	.	.	4c	.	8f	.
.	.	.	.	.	.	8eJ	.
=53	=53	=53	=53	=53	=53	=53	=53
4G	.	1r	.	4B	.	4d	.
4E	.	.	.	4G	.	2g	.
2D	.	.	.	2A	-ra,	.	.
.	.	.	.	.	.	4f#i	.
=54	=54	=54	=54	=54	=54	=54	=54
4E	.	1r	.	2r	.	2g	-ra,
4C	.	.	.	.	.	.	.
4.BB	.	.	.	2G	et	2r	.
8C	.	.	.	.	.	.	.
=55	=55	=55	=55	=55	=55	=55	=55
4.D	.	1r	.	4F	ter-	2r	.
.	.	.	.	4.A	.	.	.
8C	.	.	.	.	.	.	.
4AA	.	.	.	.	.	4r	.
.	.	.	.	8GL	.	.	.
*	*	*	*	*	*	*	*edit
4D	.	.	.	8F	.	[4d	et
.	.	.	.	8EJ	.	.	.
=56	=56	=56	=56	=56	=56	=56	=56
4BB	.	1r	.	4D	.	4d]	.
4GG	.	.	.	2G	.	8cL	.
.	.	.	.	.	.	8BJ	.
2AA	.	.	.	.	.	2c	ter-
.	.	.	.	4F#i	.	.	.
!!LO:LB:g=original
=57	=57	=57	=57	=57	=57	=57	=57
2GG	-ra,	1r	.	1G	-ra,	4B	.
.	.	.	.	.	.	4.d	.
4r	.	.	.	.	.	.	.
.	.	.	.	.	.	8cL	.
[4G	et	.	.	.	.	8B	.
.	.	.	.	.	.	8AJ	.
=58	=58	=58	=58	=58	=58	=58	=58
4G]	.	1r	.	1r	.	4G	.
8FL	.	.	.	.	.	4B	.
8EJ	.	.	.	.	.	.	.
2F	ter-	.	.	.	.	2A	.
=59	=59	=59	=59	=59	=59	=59	=59
4E	.	1r	.	2r	.	4G	.
4.G	.	.	.	.	.	4.B	.
.	.	.	.	4r	.	.	.
8FL	.	.	.	.	.	8c	.
8E	.	.	.	[4G	et	[4e	.
8DJ	.	.	.	.	.	.	.
=60	=60	=60	=60	=60	=60	=60	=60
4C	.	1r	.	4G]	.	8e]L	.
.	.	.	.	.	.	8dJ	.
4E	.	.	.	8FL	.	2c	.
.	.	.	.	8EJ	.	.	.
2D	.	.	.	2F	ter-	.	.
.	.	.	.	.	.	4B	.
=61	=61	=61	=61	=61	=61	=61	=61
2C	-ra,	1r	.	4E	.	2c	-ra,
.	.	.	.	4.G	.	.	.
4GG	et	.	.	.	.	4r	.
.	.	.	.	8FL	.	.	.
[4C	ter-	.	.	8E	.	[4g	et
.	.	.	.	8DJ	.	.	.
=62	=62	=62	=62	=62	=62	=62	=62
2.C]	.	1r	.	4C	.	4g]	.
.	.	.	.	4E	.	8fL	.
.	.	.	.	.	.	8eJ	.
.	.	.	.	2D	.	2f	ter-
4BB	.	.	.	.	.	.	.
!!LO:LB:g=original
=63	=63	=63	=63	=63	=63	=63	=63
1C	-ra	1r	.	4C	-ra,	4e	.
.	.	.	.	4.c	ter-	4.g	.
.	.	.	.	8d	.	8fL	.
.	.	.	.	[4e	.	8e	.
.	.	.	.	.	.	8dJ	.
=64	=64	=64	=64	=64	=64	=64	=64
1r	.	1r	.	8e]L	.	4c	.
.	.	.	.	8dJ	.	.	.
.	.	.	.	2c	.	4e	.
.	.	.	.	.	.	2d	.
.	.	.	.	4B	.	.	.
=65	=65	=65	=65	=65	=65	=65	=65
1r	.	1r	.	2c	-ra,	4c	-ra,
.	.	.	.	.	.	2cc	ter-
.	.	.	.	4.d	ter-	.	.
.	.	.	.	.	.	4b	.
.	.	.	.	8c	.	.	.
=66	=66	=66	=66	=66	=66	=66	=66
1r	.	1r	.	2A	-ra	2cc	-ra,
.	.	.	.	4r	.	4.dd	ter-
.	.	.	.	[4D	glo-	.	.
.	.	.	.	.	.	8cc	.
=67	=67	=67	=67	=67	=67	=67	=67
1r	.	1r	.	8D]L	.	2a	-ra
.	.	.	.	8EJ	.	.	.
.	.	.	.	4F	.	.	.
.	.	.	.	4.G	.	4r	.
.	.	.	.	.	.	[4d	glo-
.	.	.	.	8A	.	.	.
=68	=68	=68	=68	=68	=68	=68	=68
1r	.	1r	.	8BL	.	8d]L	.
.	.	.	.	8cJ	.	8eJ	.
.	.	.	.	4d	.	4f	.
.	.	.	.	4B	.	4g	.
.	.	.	.	[4c	-ri-	[4a	-ri-
!!LO:PB:g=original
=69	=69	=69	=69	=69	=69	=69	=69
1r	.	1r	.	8c]L	.	8a]L	.
.	.	.	.	8B	.	8g	.
.	.	.	.	8A	.	8f#i	.
.	.	.	.	8GJ	.	8eJ	.
.	.	.	.	2A	-a,	2f#i	.
=70	=70	=70	=70	=70	=70	=70	=70
4r	.	1r	.	4.G	glo-	1g	-a,
4.GG	glo-	.	.	.	.	.	.
.	.	.	.	8A	.	.	.
.	.	.	.	8BL	.	.	.
8AA	.	.	.	8cJ	.	.	.
4BB	.	.	.	4d	.	.	.
=71	=71	=71	=71	=71	=71	=71	=71
4C	.	1r	.	4e	.	1r	.
4D	.	.	.	4f	.	.	.
4.E	.	.	.	4.g	-ri-	.	.
8F	.	.	.	8f	.	.	.
=72	=72	=72	=72	=72	=72	=72	=72
4.G	-ri-	1r	.	2d	-a,	4r	.
.	.	.	.	.	.	4.d	glo-
8F	.	.	.	.	.	.	.
2D	-a,	.	.	4r	.	.	.
.	.	.	.	.	.	8e	.
.	.	.	.	4d	glo-	4f	.
=73	=73	=73	=73	=73	=73	=73	=73
4C	glo-	1r	.	4e	.	4g	.
4AA	.	.	.	4f	.	4a	.
4GG	.	.	.	4g	.	4b	.
4AA	.	.	.	4e	.	4cc	.
=74	=74	=74	=74	=74	=74	=74	=74
4BB	.	1r	.	4d	.	4.dd	-ri-
4GG	.	.	.	2g	.	.	.
.	.	.	.	.	.	8cc	.
2D	-ri-	.	.	.	.	2a	-a
.	.	.	.	4f#i	-ri-	.	.
!!LO:LB:g=original
=75	=75	=75	=75	=75	=75	=75	=75
2GG	-a	1r	.	2g	-a	4r	.
.	.	.	.	.	.	2b	tu-
4G	tu-	.	.	4d	tu-	.	.
4E	.	.	.	4e	.	4g	.
=76	=76	=76	=76	=76	=76	=76	=76
4F	.	1r	.	4c	.	4a	.
4D	.	.	.	2d	.	4f	.
[2G	.	.	.	.	.	4g	.
*	*	*	*	*	*	*lig	*
.	.	.	.	[4B	.	[4e	.
=77	=77	=77	=77	=77	=77	=77	=77
4G]	.	1r	.	4B]	.	4e]	.
4F	.	.	.	2A	.	2d	.
*	*	*	*	*	*	*Xlig	*
2E	.	.	.	.	.	.	.
.	.	.	.	4G	.	4c#i	.
=78	=78	=78	=78	=78	=78	=78	=78
2D	-a,	1r	.	2A	-a,	2d	-a,
4r	.	.	.	4F	.	4r	.
*	*	*	*	*	*	*	*Xedit
4BB	glo-	.	.	[4G	glo-	4d	glo-
=79	=79	=79	=79	=79	=79	=79	=79
4C	.	1r	.	4G]	.	4e	.
4AA	-ri-	.	.	4A	.	4f	.
2GG	-a,	.	.	4.B	.	2g	.
.	.	.	.	8G	.	.	.
=80	=80	=80	=80	=80	=80	=80	=80
4r	.	1r	.	4c	-ri-	2a	-ri-
*	*Xedit	*	*	*	*	*	*
4F	glo-	.	.	8BL	.	.	.
.	.	.	.	8AJ	.	.	.
4.G	.	.	.	2G	-a,	2b	-a,
8E	.	.	.	.	.	.	.
!!LO:LB:g=original
=81	=81	=81	=81	=81	=81	=81	=81
*	*	*	*	*	*	*	*edit
4F	-ri-	1r	.	4r	.	4a	glo-
4G	.	.	.	4g	glo-	4g	.
2A	-a	.	.	4e	.	2cc	.
.	.	.	.	4f	.	.	.
=82	=82	=82	=82	=82	=82	=82	=82
1r	.	1r	.	4g	.	4b	-ri-
.	.	.	.	2f	-ri-	2a	-a
*	*	*	*	*	*	*	*Xedit
.	.	.	.	4d	-a	[4dd	tu-
=83	=83	=83	=83	=83	=83	=83	=83
2r	.	1r	.	4.g	tu-	8dd]L	.
.	.	.	.	.	.	8cc	.
.	.	.	.	.	.	8b	.
.	.	.	.	8f	.	8aJ	.
4G	tu-	.	.	8eL	.	8gL	.
.	.	.	.	8dJ	.	8f	.
[4A	.	.	.	[4c	.	8e	.
.	.	.	.	.	.	8dJ	.
=84	=84	=84	=84	=84	=84	=84	=84
4A]	.	1r	.	4c]	.	4e	.
4B	.	.	.	4d	.	2d	.
4.G	.	.	.	4B	.	.	.
.	.	.	.	4G	.	[4g	.
8F	.	.	.	.	.	.	.
=85	=85	=85	=85	=85	=85	=85	=85
8EL	.	1r	.	2c	.	8g]L	.
8DJ	.	.	.	.	.	8fJ	.
4C	.	.	.	.	.	4.a	.
2D	.	.	.	2A	.	.	.
.	.	.	.	.	.	8e	.
.	.	.	.	.	.	4f#i	.
=86	=86	=86	=86	=86	=86	=86	=86
1GGl	-a.	1r	.	1Gl	-a.	1gl	-a.
!!LO:LB:g=original
=87||	=87||	=87||	=87||	=87||	=87||	=87||	=87||
*M2/2	*	*M2/2	*	*M2/2	*	*M2/2	*
*met(C|)	*	*met(C|)	*	*met(C|)	*	*met(C|)	*
*	*	*	*Xedit	*	*Xedit	*	*
[1G	O-	[1G	O-	1d	O-	[1g	O-
=88	=88	=88	=88	=88	=88	=88	=88
2G]	.	1G_	.	2.e	-san-	1g_	.
[2E	-san-	.	.	.	.	.	.
.	.	.	.	8dL	.	.	.
.	.	.	.	8cJ	.	.	.
=89	=89	=89	=89	=89	=89	=89	=89
4E]	.	1G_	.	2B	.	1g_	.
4D	.	.	.	.	.	.	.
2C	.	.	.	2c	.	.	.
=90	=90	=90	=90	=90	=90	=90	=90
2BB	.	1G]	.	2d	.	1g]	.
[2C	.	.	.	[2e	.	.	.
=91	=91	=91	=91	=91	=91	=91	=91
*	*	*lig	*	*	*	*lig	*
4C]	.	1c	-san-	2e]	.	2g	-san-
4BB	.	.	.	.	.	.	.
2AA	.	.	.	2f	.	2a	.
*	*	*	*	*	*	*Xlig	*
=92	=92	=92	=92	=92	=92	=92	=92
1GG	-na,	[1d	.	1g	.	2.b	.
.	.	.	.	.	.	4a	.
=93	=93	=93	=93	=93	=93	=93	=93
*lig	*edit	*	*	*	*	*	*
2BB	o-	2d]	.	2d	-na,	4g	.
*	*	*Xlig	*	*	*	*	*
.	.	.	.	.	.	4f	.
2C	.	2c	.	2r	.	2e	.
*Xlig	*	*	*	*	*	*	*
!!LO:LB:g=original
=94	=94	=94	=94	=94	=94	=94	=94
*lig	*	*	*	*	*edit	*	*
2D	.	1B	.	2d	o-	4d	.
.	.	.	.	.	.	4.g	.
2E	.	.	.	2G	.	.	.
.	.	.	.	.	.	8f	.
.	.	.	.	.	.	4g	.
=95	=95	=95	=95	=95	=95	=95	=95
*	*	*lig	*	*	*	*	*
1F	.	1A	-na,	2c	.	4.a	.
*Xlig	*	*	*	*	*	*	*
.	.	.	.	.	.	8g	.
.	.	.	.	[2c	-san-	4f	.
.	.	.	.	.	.	4e	.
=96	=96	=96	=96	=96	=96	=96	=96
*lig	*	*	*	*	*	*	*
1G	-san-	1B	.	2c]	.	1d	-na,
.	.	.	.	2B	.	.	.
=97	=97	=97	=97	=97	=97	=97	=97
*	*	*	*	*	*	*	*edit
[1C	.	[1G	.	1c	-na,	2.e	o-
.	.	.	.	.	.	4f	.
=98	=98	=98	=98	=98	=98	=98	=98
*	*	*	*	*lig	*	*	*
2C]	.	1G]	.	2e	.	4g	.
*Xlig	*	*Xlig	*	*	*	*	*
.	.	.	.	.	.	4a	.
2BB	.	.	.	2d	.	2b	.
=99	=99	=99	=99	=99	=99	=99	=99
*	*	*	*edit	*Xlig	*	*	*
2AA	.	[1A	o-	2c	.	4.cc	-san-
.	.	.	.	.	.	8b	.
*lig	*	*	*	*	*	*	*
[2D	.	.	.	2r	.	8aL	.
.	.	.	.	.	.	8gJ	.
.	.	.	.	.	.	[4f	.
=100	=100	=100	=100	=100	=100	=100	=100
2D]	.	1A]	.	1r	.	4f]	.
.	.	.	.	.	.	8eL	.
.	.	.	.	.	.	8dJ	.
[2C	.	.	.	.	.	4.e	.
.	.	.	.	.	.	8f	.
!!LO:PB:g=original
=101	=101	=101	=101	=101	=101	=101	=101
2C]	.	2G	-san-	2e	o-	8gL	.
*Xlig	*	*	*	*	*	*	*
.	.	.	.	.	.	8f	.
.	.	.	.	.	.	8e	.
.	.	.	.	.	.	8dJ	.
4D	.	4F	.	4d	.	4f	.
4AA	.	[4A	.	[4c	.	[4e	.
=102	=102	=102	=102	=102	=102	=102	=102
4C	.	4A]	.	4c]	.	4e]	.
4D	.	4F	.	2.A	-san-	2d	.
2AA	-na,	2E	.	.	.	.	.
.	.	.	.	.	.	4c#i	.
=103	=103	=103	=103	=103	=103	=103	=103
1r	.	[1D	-na	2F	.	2.d	-na,
.	.	.	.	[2G	.	.	.
.	.	.	.	.	.	8cL	.
.	.	.	.	.	.	8BJ	.
=104	=104	=104	=104	=104	=104	=104	=104
1r	.	1D]	.	2G]	.	1A	o-
.	.	.	.	2F	.	.	.
=105	=105	=105	=105	=105	=105	=105	=105
1GG	o-	1r	.	4.G	-na,	2B	-san-
.	.	.	.	8A	.	.	.
.	.	.	.	2B	.	2G	-na,
=106	=106	=106	=106	=106	=106	=106	=106
4.C	-san-	1r	.	2.G	o-	4r	.
.	.	.	.	.	.	2g	o-
8D	.	.	.	.	.	.	.
4E	.	.	.	.	.	.	.
4F	.	.	.	4A	.	4f	.
!!LO:LB:g=original
=107	=107	=107	=107	=107	=107	=107	=107
4E	.	1r	.	4G	-san-	4g	-san-
2D	.	.	.	4F	.	4a	.
.	.	.	.	2E	.	4b	.
4C	.	.	.	.	.	4cc	.
=108	=108	=108	=108	=108	=108	=108	=108
1D	-na	[1A	in	4D	-na,	4.f	.
.	.	.	.	4.d	o-	.	.
.	.	.	.	.	.	8g	.
.	.	.	.	.	.	8aL	.
.	.	.	.	8e	.	8gJ	.
.	.	.	.	[4f	-san-	[4a	.
=109	=109	=109	=109	=109	=109	=109	=109
1r	.	1A]	.	4f]	.	4a]	.
.	.	.	.	8eL	.	8gL	.
.	.	.	.	8dJ	.	8fJ	.
.	.	.	.	2c	-na	2e	.
=110	=110	=110	=110	=110	=110	=110	=110
2r	.	4.B	ex-	4.d	in	2d	-na
.	.	8c	.	8e	.	.	.
2D	in	[2d	-cel-	2f	ex-	4r	.
.	.	.	.	.	.	[4dd	in
=111	=111	=111	=111	=111	=111	=111	=111
2G	.	1d_	.	2g	-cel-	4dd]	.
.	.	.	.	.	.	8ccL	.
.	.	.	.	.	.	8bJ	.
4r	.	.	.	4f	.	2a	ex-
[4D	ex-	.	.	[4a	.	.	.
=112	=112	=112	=112	=112	=112	=112	=112
4D]	.	1d_	.	8a]L	.	4f	.
.	.	.	.	8gJ	.	.	.
4GG	.	.	.	2g	.	4g	.
2D	-cel-	.	.	.	.	2a	.
.	.	.	.	4f#i	.	.	.
!!LO:LB:g=original
=113	=113	=113	=113	=113	=113	=113	=113
2G	-sis,	2d]	.	2g	-sis,	4b	-cel-
.	.	.	.	.	.	4.dd	.
4D	in	2d	-sis,	4f	in	.	.
.	.	.	.	.	.	8cc	.
[4G	ex-	.	.	4d	ex-	[4b	.
=114	=114	=114	=114	=114	=114	=114	=114
4G]	.	2c	in-	4g	-cel-	4b]	.
4A	.	.	.	2.e	.	2a	.
2E	-cel-	2B	-ex-	.	.	.	.
.	.	.	.	.	.	4g#i	.
=115	=115	=115	=115	=115	=115	=115	=115
*	*	*	*	*lig	*	*	*
2.F	-sis,	2A	-cel-	2c	-sis,	2a	-sis,
.	.	[2d	-sis,	2A	.	4r	.
*	*	*	*	*Xlig	*	*	*
4D	ex-	.	.	.	.	4a	in
=116	=116	=116	=116	=116	=116	=116	=116
4.D	-cel-	1d_	.	4r	.	4.b	ex-
.	.	.	.	4F	in	.	.
8C	.	.	.	.	.	8cc	.
8BBL	.	.	.	4.G	ex-	4.dd	.
8AAJ	.	.	.	.	.	.	.
4GG	-sis,	.	.	.	.	.	.
.	.	.	.	8A	.	8cc	.
=117	=117	=117	=117	=117	=117	=117	=117
2r	.	2d]	.	8BL	.	8bL	.
.	.	.	.	8cJ	.	8aJ	.
.	.	.	.	2d	.	4.b	.
2G	in	2d	in	.	.	.	.
.	.	.	.	.	.	8a	.
.	.	.	.	4g	.	4b	.
=118	=118	=118	=118	=118	=118	=118	=118
4A	ex-	2c	ex-	4e	.	4cc	.
4F	.	.	.	4f	.	4.a	.
2G	.	2B	-cel-	[2d	-cel-	.	.
.	.	.	.	.	.	8b	.
.	.	.	.	.	.	[4g	-cel-
!!LO:LB:g=original
=119	=119	=119	=119	=119	=119	=119	=119
1D	-cel-	1A	-sis,	1d]	.	4g]	.
.	.	.	.	.	.	4f#i	.
.	.	.	.	.	.	4.f#i	.
.	.	.	.	.	.	8e	.
=120	=120	=120	=120	=120	=120	=120	=120
*	*	*lig	*	*	*	*	*
1GG	-sis,	[1G	o-	2d	-sis,	1g	-sis,
.	.	.	.	4r	.	.	.
.	.	.	.	[4d	o-	.	.
=121	=121	=121	=121	=121	=121	=121	=121
2r	.	1G_	.	4d]	.	8gL	o-
.	.	.	.	.	.	8f	.
.	.	.	.	4B	.	8e	.
.	.	.	.	.	.	8dJ	.
2C	o-	.	.	2c	.	2e	-san-
=122	=122	=122	=122	=122	=122	=122	=122
[1GG	-san-	1G_	.	4B	.	2d	-na,
.	.	.	.	2d	.	.	.
.	.	.	.	.	.	4r	.
.	.	.	.	[4g	-san-	[4dd	o-
=123	=123	=123	=123	=123	=123	=123	=123
2GG]	.	1G_	.	8g]L	.	4dd]	.
.	.	.	.	8f	.	.	.
.	.	.	.	8e	.	4b	.
.	.	.	.	8dJ	.	.	.
2C	-na,	.	.	4.e	.	2cc	.
.	.	.	.	8d	.	.	.
=124	=124	=124	=124	=124	=124	=124	=124
1r	.	1G_	.	[1d	.	4b	.
.	.	.	.	.	.	4.dd	-san-
.	.	.	.	.	.	8ccL	.
.	.	.	.	.	.	8b	.
.	.	.	.	.	.	8aJ	.
!!LO:PB:g=original
=125	=125	=125	=125	=125	=125	=125	=125
2r	.	1G]	.	2d]	.	2.b	-na,
2G	o-	.	.	2e	.	.	.
.	.	.	.	.	.	4a	o-
=126	=126	=126	=126	=126	=126	=126	=126
2.F	-san-	[1c	-san-	1f	-na,	2.a	-san-
4G	.	.	.	.	.	4g	.
=127	=127	=127	=127	=127	=127	=127	=127
2A	.	1c_	.	2r	.	4f	.
.	.	.	.	.	.	4e	.
2AA	-na,	.	.	[2A	o-	2f	.
=128	=128	=128	=128	=128	=128	=128	=128
2r	.	1c_	.	4A]	.	2e	-na,
.	.	.	.	4G	.	.	.
2AA	o-	.	.	4F	.	2a	in
.	.	.	.	4E	.	.	.
=129	=129	=129	=129	=129	=129	=129	=129
1AA	-san-	1c_	.	2F	-san-	4.a	ex-
.	.	.	.	.	.	8b	.
.	.	.	.	2E	-na,	4cc	.
.	.	.	.	.	.	[4a	-cel-
=130	=130	=130	=130	=130	=130	=130	=130
1AA	-na,	1c_	.	4r	.	4a]	.
.	.	.	.	2A	in	8gL	.
.	.	.	.	.	.	8fJ	.
.	.	.	.	.	.	2e	-sis,
.	.	.	.	8GL	.	.	.
.	.	.	.	8FJ	.	.	.
!!LO:LB:g=original
=131	=131	=131	=131	=131	=131	=131	=131
1r	.	1c]	.	2E	.	4r	.
*	*	*Xlig	*	*	*	*	*
.	.	.	.	.	.	2cc	o-
.	.	.	.	4r	.	.	.
.	.	.	.	[4A	ex-	4a	.
=132	=132	=132	=132	=132	=132	=132	=132
*	*	*lig	*	*	*	*	*
2r	.	2d	.	4A]	.	2b	.
.	.	.	.	4G#i	-cel-	.	.
2AA	in	2c	.	2A	-sis,	[2a	-san-
=133	=133	=133	=133	=133	=133	=133	=133
1E	ex-	1B	.	1r	.	2a]	.
*	*	*Xlig	*	*	*	*	*
.	.	.	.	.	.	2g#i	.
=134	=134	=134	=134	=134	=134	=134	=134
2.F	-cel-	[1A	-na	2.c	in	[1a	-na,
8EL	.	.	.	4d	.	.	.
8DJ	.	.	.	.	.	.	.
=135	=135	=135	=135	=135	=135	=135	=135
4C	.	1A_	.	4e	ex-	1a]	.
2D	.	.	.	2f	.	.	.
4C	.	.	.	[4e	.	.	.
=136	=136	=136	=136	=136	=136	=136	=136
*	*	*	*	*	*	*lig	*
2D	.	1A]	.	4e]	.	2f	in
.	.	.	.	2d	-cel-	.	.
2AA	.	.	.	.	.	2e	.
*	*	*	*	*	*	*Xlig	*
.	.	.	.	4c#i	.	.	.
=137	=137	=137	=137	=137	=137	=137	=137
2.D	-sis,	[1A	in	2d	-sis,	4d	ex-
.	.	.	.	.	.	4.f	.
.	.	.	.	4r	.	.	.
.	.	.	.	.	.	8g	.
*	*	*	*	*	*Xedit	*	*
4C	in	.	.	4e	in	[4a	-cel-
!!LO:LB:g=original
=138	=138	=138	=138	=138	=138	=138	=138
4D	ex-	1A]	.	4.f	ex-	4a]	.
4BB	.	.	.	.	.	2g	.
.	.	.	.	8e	.	.	.
2AA	-cel-	.	.	2c	.	.	.
.	.	.	.	.	.	4f	.
=139	=139	=139	=139	=139	=139	=139	=139
2GG	.	1r	.	4d	.	4g	-sis,
.	.	.	.	2g	-cel-	4G	in
2D	-sis,	.	.	.	.	2A	ex-
.	.	.	.	4f	.	.	.
=140	=140	=140	=140	=140	=140	=140	=140
1r	.	2B	ex-	4g	.	4.G	-cel-
.	.	.	.	4e	.	.	.
.	.	.	.	.	.	8A	.
.	.	2G	.	2d	.	2B	.
=141	=141	=141	=141	=141	=141	=141	=141
2r	.	1A	-cel-	1c	-sis,	4.c	.
.	.	.	.	.	.	8d	.
2AA	in	.	.	.	.	8eL	.
.	.	.	.	.	.	8fJ	.
.	.	.	.	.	.	[4e	.
=142	=142	=142	=142	=142	=142	=142	=142
*	*	*	*	*	*edit	*	*
4C	ex-	4G	.	4c	in	4e]	.
4D	-cel-	4F	.	2.A	ex-	2d	.
2AA	-sis,	2E	.	.	.	.	.
.	.	.	.	.	.	4c#i	.
=143	=143	=143	=143	=143	=143	=143	=143
1r	.	2D	-sis,	2F	-cel-	2.d	-sis,
.	.	2r	.	4D	.	.	.
.	.	.	.	[4E	.	8cL	.
.	.	.	.	.	.	8BJ	.
!!LO:LB:g=original
=144	=144	=144	=144	=144	=144	=144	=144
*	*	*	*Xedit	*	*	*	*
1r	.	2A	ex-	4E]	.	4c	ex-
.	.	.	.	4F	.	8BL	.
.	.	.	.	.	.	8AJ	.
.	.	2B	-cel-	4G	.	4G	.
.	.	.	.	4D	.	[4d	-cel-
=145	=145	=145	=145	=145	=145	=145	=145
1r	.	4A	.	4F	.	4d]	.
.	.	2G	.	4G	.	4B	.
.	.	.	.	2D	-sis,	2A	-sis,
.	.	4F#i	.	.	.	.	.
=146	=146	=146	=146	=146	=146	=146	=146
2GG	in	1G	-sis,	4r	.	4r	.
*	*	*	*	*	*	*	*Xedit
.	.	.	.	2d	in	2b	in
2G	ex-	.	.	.	.	.	.
.	.	.	.	8cL	.	8aL	.
.	.	.	.	8BJ	.	8gJ	.
=147	=147	=147	=147	=147	=147	=147	=147
2F	-cel-	1r	.	4.c	ex-	2a	ex-
.	.	.	.	8B	.	.	.
4G	.	.	.	4G	.	2b	-cel-
4D	.	.	.	[4d	-cel-	.	.
=148	=148	=148	=148	=148	=148	=148	=148
4F	.	1r	.	4d]	.	4a	.
4G	.	.	.	4B	.	2g	.
2D	.	.	.	2A	.	.	.
.	.	.	.	.	.	4f#i	.
=149	=149	=149	=149	=149	=149	=149	=149
*	*	*	*edit	*	*	*	*
1GGl	-sis.	1Gl	--sis.	1Gl	-sis.	1gl	-sis.
!!LO:PB:g=original
=150||	=150||	=150||	=150||	=150||	=150||	=150||	=150||
*M2/2	*	*M2/2	*	*M2/2	*	*M2/2	*
*met(C|)	*	*met(C|)	*	*met(C|)	*	*met(C|)	*
*	*	*	*	*	*Xedit	*	*
1r	.	1r	.	1G	Be-	1r	.
=151	=151	=151	=151	=151	=151	=151	=151
2r	.	1r	.	2G	-ne-	1r	.
*	*Xedit	*	*	*	*	*	*
[2C	Be-	.	.	[2c	-di-	.	.
=152	=152	=152	=152	=152	=152	=152	=152
2C]	.	1r	.	4c]	.	1r	.
.	.	.	.	4d	.	.	.
2C	-ne-	.	.	2e	.	.	.
=153	=153	=153	=153	=153	=153	=153	=153
2.F	-di-	1r	.	4d	.	1r	.
.	.	.	.	4.c	.	.	.
.	.	.	.	8BL	.	.	.
4G	.	.	.	8A	.	.	.
.	.	.	.	8GJ	.	.	.
=154	=154	=154	=154	=154	=154	=154	=154
2A	.	1r	.	2F	.	1r	.
4G	.	.	.	4G	.	.	.
[4F	.	.	.	[4A	.	.	.
=155	=155	=155	=155	=155	=155	=155	=155
8F]L	.	1r	.	8A]L	.	1r	.
8E	.	.	.	8G	.	.	.
8D	.	.	.	8F	.	.	.
8CJ	.	.	.	8EJ	.	.	.
2BB	.	.	.	2D	-ctus,	.	.
!!LO:LB:g=original
=156	=156	=156	=156	=156	=156	=156	=156
2C	.	1r	.	4C	be-	1r	.
.	.	.	.	4E	.	.	.
4D	.	.	.	4F	.	.	.
[4E	.	.	.	[4G	.	.	.
=157	=157	=157	=157	=157	=157	=157	=157
8E]L	.	1r	.	8G]L	.	1r	.
8D	.	.	.	8FJ	.	.	.
8C	.	.	.	4G	.	.	.
8BBJ	.	.	.	.	.	.	.
2AA	.	.	.	4A	.	.	.
.	.	.	.	4F	.	.	.
=158	=158	=158	=158	=158	=158	=158	=158
2GG	-ctus	1r	.	2G	-ne-	4G	Be-
.	.	.	.	.	.	4B	.
2r	.	.	.	4A	.	4c	.
.	.	.	.	[4B	-di-	[4d	.
=159	=159	=159	=159	=159	=159	=159	=159
1r	.	1r	.	8B]L	.	8d]L	.
.	.	.	.	8AJ	.	8cJ	.
.	.	.	.	8G	.	4d	.
.	.	.	.	8FJ	.	.	.
.	.	.	.	2E	.	4e	.
.	.	.	.	.	.	4c	.
=160	=160	=160	=160	=160	=160	=160	=160
1r	.	1r	.	4D	.	2.d	-ne-
*	*	*	*	*col	*	*	*
.	.	.	.	4.G	.	.	.
.	.	.	.	8A	.	.	.
*	*	*	*	*Xcol	*	*	*
.	.	.	.	[4B	.	[4g	-di-
!!LO:LB:g=original
=161	=161	=161	=161	=161	=161	=161	=161
2r	.	1r	.	4B]	.	4g]	.
.	.	.	.	4c	.	4a	.
2GG	qui	.	.	2d	.	2b	.
=162	=162	=162	=162	=162	=162	=162	=162
2.C	ve-	1r	.	2e	-ctus	4a	.
.	.	.	.	.	.	4.g	.
.	.	.	.	2r	.	.	.
.	.	.	.	.	.	8fL	.
4D	.	.	.	.	.	8e	.
.	.	.	.	.	.	8dJ	.
=163	=163	=163	=163	=163	=163	=163	=163
4E	.	1r	.	1r	.	2c	.
4F	.	.	.	.	.	.	.
4D	.	.	.	.	.	4d	.
[4G	.	.	.	.	.	[4e	.
=164	=164	=164	=164	=164	=164	=164	=164
8G]L	.	1r	.	1r	.	8e]L	.
8FJ	.	.	.	.	.	8d	.
4G	.	.	.	.	.	8c	.
.	.	.	.	.	.	8BJ	.
4A	.	.	.	.	.	2A	-ctus
4F	.	.	.	.	.	.	.
=165	=165	=165	=165	=165	=165	=165	=165
*	*	*	*	*	*Xedit	*	*
4G	.	1r	.	4G	qui	1r	.
4.A	.	.	.	4.c	ve-	.	.
8GL	.	.	.	8B	.	.	.
8F	.	.	.	4c	.	.	.
8EJ	.	.	.	.	.	.	.
!!LO:LB:g=original
=166	=166	=166	=166	=166	=166	=166	=166
2D	.	1r	.	4d	.	2r	.
.	.	.	.	4B	.	.	.
2C	-nit	.	.	2c	-nit,	4r	.
*	*	*	*	*	*	*	*edit
.	.	.	.	.	.	[4g	ve-
=167	=167	=167	=167	=167	=167	=167	=167
*	*	*	*	*	*edit	*	*
1r	.	1r	.	4c	ve-	8g]L	.
.	.	.	.	.	.	8fJ	.
.	.	.	.	4B	.	4g	.
.	.	.	.	2A	.	4a	.
.	.	.	.	.	.	4f	.
=168	=168	=168	=168	=168	=168	=168	=168
1r	.	1r	.	4G	-nit,	4.g	.
.	.	.	.	4.g	ve-	.	.
.	.	.	.	.	.	8f	.
.	.	.	.	.	.	8eL	.
.	.	.	.	8f	.	8d	.
.	.	.	.	4g	.	8c	.
.	.	.	.	.	.	8BJ	.
=169	=169	=169	=169	=169	=169	=169	=169
1r	.	1r	.	4a	.	2A	.
.	.	.	.	4f	.	.	.
.	.	.	.	4.g	.	4G	-nit,
.	.	.	.	.	.	[4c	ve-
.	.	.	.	8f	.	.	.
=170	=170	=170	=170	=170	=170	=170	=170
*	*edit	*	*	*	*	*	*
2C	in	1r	.	8eL	.	8c]L	.
.	.	.	.	8d	.	8dJ	.
.	.	.	.	8c	.	4e	.
.	.	.	.	8BJ	.	.	.
4D	no-	.	.	4A	.	4f	.
4E	.	.	.	[4G	-nit,	[4g	.
!!LO:LB:g=original
=171	=171	=171	=171	=171	=171	=171	=171
4C	.	1r	.	4G]	.	2g]	.
4E	.	.	.	2c	ve-	.	.
4F	.	.	.	.	.	4a	.
4G	.	.	.	4B	.	4b	.
=172	=172	=172	=172	=172	=172	=172	=172
4E	.	1r	.	2c	-nit	4g	.
4C	.	.	.	.	.	2cc	.
2G	-mi-	.	.	2d	.	.	.
.	.	.	.	.	.	4b	.
=173	=173	=173	=173	=173	=173	=173	=173
4C	-ne	1r	.	2c	in	2cc	-nit
2F	Do-	.	.	.	.	.	.
.	.	.	.	4A	.	2r	.
[4G	.	.	.	[4B	no-	.	.
=174	=174	=174	=174	=174	=174	=174	=174
4G]	.	1r	.	4B]	.	2r	.
8FL	-mi-	.	.	8AL	.	.	.
8EJ	.	.	.	8GJ	.	.	.
2F	-ni,	.	.	8AL	.	2cc	in
.	.	.	.	8G	.	.	.
.	.	.	.	8F	.	.	.
.	.	.	.	8EJ	.	.	.
=175	=175	=175	=175	=175	=175	=175	=175
1r	.	1r	.	4F	.	4a	.
.	.	.	.	4G	.	2b	no-
.	.	.	.	4D	.	.	.
.	.	.	.	4E	.	8aL	.
.	.	.	.	.	.	8gJ	.
!!LO:PB:g=original
=176	=176	=176	=176	=176	=176	=176	=176
1r	.	1r	.	4.F	.	8aL	.
.	.	.	.	.	.	8g	.
.	.	.	.	.	.	8f	.
.	.	.	.	8G	.	8eJ	.
.	.	.	.	4A	.	4f	.
.	.	.	.	[4B	.	4g	.
=177	=177	=177	=177	=177	=177	=177	=177
1r	.	1r	.	4B]	.	4d	.
.	.	.	.	4c	.	4e	.
.	.	.	.	4.d	.	4.f	.
.	.	.	.	8c	.	8g	.
=178	=178	=178	=178	=178	=178	=178	=178
1r	.	1r	.	4A	.	4a	.
.	.	.	.	4G	.	2b	.
.	.	.	.	4d	.	.	.
.	.	.	.	4c	.	4cc	.
=179	=179	=179	=179	=179	=179	=179	=179
1r	.	1r	.	4.B	.	4.dd	.
.	.	.	.	8A	.	8cc	.
.	.	.	.	4F	.	4a	.
.	.	.	.	[4G	-mi-	4g	.
=180	=180	=180	=180	=180	=180	=180	=180
1r	.	1r	.	4G]	.	4dd	-mi-
.	.	.	.	4A	.	4cc	.
.	.	.	.	4B	.	4b	.
.	.	.	.	4c	.	8aL	.
.	.	.	.	.	.	8gJ	.
!!LO:LB:g=original
=181	=181	=181	=181	=181	=181	=181	=181
1r	.	1r	.	2.d	-ne	[1f	-ne
.	.	.	.	8cL	.	.	.
.	.	.	.	8BJ	.	.	.
=182	=182	=182	=182	=182	=182	=182	=182
2r	.	1r	.	4A	.	1f]	.
.	.	.	.	4.D	Do-	.	.
[2D	in	.	.	.	.	.	.
.	.	.	.	8EL	.	.	.
.	.	.	.	8F	.	.	.
.	.	.	.	8GJ	.	.	.
=183	=183	=183	=183	=183	=183	=183	=183
4D]	.	1r	.	4A	.	1r	.
8CL	.	.	.	4B	.	.	.
8BBJ	.	.	.	.	.	.	.
2AA	.	.	.	2c	.	.	.
=184	=184	=184	=184	=184	=184	=184	=184
4r	.	1r	.	4.B	.	4.G	Do-
4.GG	no-	.	.	.	.	.	.
.	.	.	.	8G	.	8A	.
.	.	.	.	2d	.	8BL	.
8AA	.	.	.	.	.	8cJ	.
4BB	.	.	.	.	.	4d	.
=185	=185	=185	=185	=185	=185	=185	=185
4C	.	1r	.	4.c	.	4e	.
4D	.	.	.	.	.	4f	.
.	.	.	.	8A	.	.	.
4E	.	.	.	4G	.	4g	.
4F	.	.	.	4c	.	4a	.
!!LO:LB:g=original
=186	=186	=186	=186	=186	=186	=186	=186
4G	.	1r	.	4B	-mi-	4b	.
4E	.	.	.	4G	.	2cc	-mi-
2F	-mi-	.	.	2A	-ni,	.	.
.	.	.	.	.	.	8bL	.
.	.	.	.	.	.	8aJ	.
=187	=187	=187	=187	=187	=187	=187	=187
2G	-ne,	1r	.	4r	.	1b	-ni,
*	*	*	*	*	*Xedit	*	*
.	.	.	.	2G	in	.	.
2r	.	.	.	.	.	.	.
.	.	.	.	8FL	.	.	.
.	.	.	.	8EJ	.	.	.
=188	=188	=188	=188	=188	=188	=188	=188
1r	.	1r	.	4A	no-	4r	.
*	*	*	*	*	*	*	*Xedit
.	.	.	.	2G	.	2b	in
.	.	.	.	8FL	.	8aL	.
.	.	.	.	8EJ	.	8gJ	.
=189	=189	=189	=189	=189	=189	=189	=189
4r	.	1r	.	4.A	.	4.cc	no-
2F	in	.	.	.	.	.	.
.	.	.	.	8B	.	8b	.
.	.	.	.	4c	-mi-	4a	-mi-
8EL	.	.	.	4d	.	[4a	-ne
8DJ	.	.	.	.	.	.	.
=190	=190	=190	=190	=190	=190	=190	=190
2E	.	1r	.	2B	-ne	4a]	.
.	.	.	.	.	.	4g#i	.
*	*	*	*	*	*edit	*	*edit
4r	.	.	.	4.A	Do-	[2a	Do-
[4F	no-	.	.	.	.	.	.
.	.	.	.	8B	.	.	.
!!LO:LB:g=original
=191	=191	=191	=191	=191	=191	=191	=191
4F]	.	1r	.	4c	.	4a]	.
8EL	.	.	.	4d	.	8gL	.
8DJ	.	.	.	.	.	8fJ	.
4F	.	.	.	4c	.	4a	.
[4C	.	.	.	[4e	.	[4g	.
=192	=192	=192	=192	=192	=192	=192	=192
4C]	.	1r	.	4e]	.	4g]	.
4D	.	.	.	2d	-mi-	4f	.
2A	-mi-	.	.	.	.	2e	-mi-
.	.	.	.	4c#i	.	.	.
=193	=193	=193	=193	=193	=193	=193	=193
4D	-ne	1r	.	2.d	-ni,	2d	-ni,
2B	Do-	.	.	.	.	.	.
.	.	.	.	.	.	2r	.
8AL	.	.	.	8cL	.	.	.
8GJ	.	.	.	8BJ	.	.	.
=194	=194	=194	=194	=194	=194	=194	=194
4B	.	1r	.	4d	Do-	1r	.
*lig	*	*	*	*	*	*	*
2A	.	.	.	2c	.	.	.
[4G	.	.	.	4B	.	.	.
=195	=195	=195	=195	=195	=195	=195	=195
4G]	.	1r	.	2A	-mi-	1r	.
*Xlig	*	*	*	*	*	*	*
4F#j	.	.	.	.	.	.	.
4.G	.	.	.	2G	-ni,	.	.
8Fny	.	.	.	.	.	.	.
=196	=196	=196	=196	=196	=196	=196	=196
*	*	*	*	*	*	*	*Xedit
8EL	.	1r	.	2r	.	2g	Do-
8DJ	.	.	.	.	.	.	.
4C	-mi	.	.	.	.	.	.
*	*	*	*	*	*Xedit	*	*
4BB	.	.	.	2G	Do-	4d	.
4GG	ni,	.	.	.	.	4g	.
!!LO:LB:g=original
=197	=197	=197	=197	=197	=197	=197	=197
1r	.	1r	.	4D	.	4a	.
.	.	.	.	4.G	.	2b	.
.	.	.	.	8A	.	.	.
.	.	.	.	[4B	.	8aL	.
.	.	.	.	.	.	8gJ	.
=198	=198	=198	=198	=198	=198	=198	=198
1r	.	1r	.	4B]	.	4.dd	.
.	.	.	.	8AL	.	.	.
.	.	.	.	8GJ	.	8cc	.
.	.	.	.	2d	.	4b	.
.	.	.	.	.	.	4a	.
=199	=199	=199	=199	=199	=199	=199	=199
*	*Xedit	*	*	*	*	*	*
4.C	Do-	1r	.	4.e	.	4.g	.
8D	.	.	.	8d	.	8f	.
8EL	.	.	.	4c	.	4e	.
8FJ	.	.	.	.	.	.	.
4G	.	.	.	4B	.	[4d	.
=200	=200	=200	=200	=200	=200	=200	=200
4F	.	1r	.	8AL	.	8d]L	.
.	.	.	.	8GJ	.	8cJ	.
4G	.	.	.	2g	.	4B	.
2D	.	.	.	.	.	2A	.
.	.	.	.	4f#i	.	.	.
=201	=201	=201	=201	=201	=201	=201	=201
2E	.	1r	.	4g	.	4G	.
.	.	.	.	4G	-mi-	2g	-mi-
2D	-mi-	.	.	2A	.	.	.
.	.	.	.	.	.	4f#i	.
=202	=202	=202	=202	=202	=202	=202	=202
1GGl	-ni.	1r	.	1Gl	-ni.	1gl	-ni.
!!LO:TX:b:t=Osanna ut supra
==	==	==	==	==	==	==	==
*-	*-	*-	*-	*-	*-	*-	*-
!!!system-decoration: [*]
!!!RDF**kern: j = editorial accidental, optional, paren up
!!!RDF**kern: i = editorial accidental
!!!RDF**kern: l = terminal breve
!!!PTL: Gaspar van Weerbeke: Collected Works. I. Masses, Part 1
!!!PPR: American Institute of Musicology
!!!PC#: Corpus Mensurabilis Musicae 106/I.1
!!!PDT: 2014
!!!PED: Pavanello, Agnese
!!!YEC: Copyright 2016, Pavanello, Agnese
!!!YEM: CC-BY-NC 4.0 (https://creativecommons.org/licenses/by-nc/4.0/legalcode)
!!!EED: Mair-Gruber, Roland
!!!EEV: 2021/11/02
!!!title: @{OPR} &mdash; @{OTL}
